media/img/author-noun-banana.svg

<svg width="469" height="433" viewBox="0 0 469 433" fill="none" xmlns="http://www.w3.org/2000/svg">
<g clip-path="url(#clip0_623_6019)">
<path d="M377.099 98.1103C366.575 87.8146 355.691 77.1666 348.994 63.3526C345.725 56.6103 343.666 49.5103 341.667 42.6443C340.561 38.8333 339.453 35.0103 338.137 31.2709C334.172 20.0372 329.191 12.7393 323.749 10.1804C320.796 8.78623 317.568 8.76595 313.883 10.1131C309.089 11.8713 307.746 14.4005 307.152 16.1608C303.219 27.6583 317.876 51.0188 327.572 66.4754C332.65 74.5726 336.663 80.9627 338.091 85.3716C340.91 94.0518 340.821 103.182 340.305 111.75C338.381 143.456 330.932 172.317 318.165 197.54C302.68 228.13 277.52 253.004 245.407 269.46C219.689 282.631 192.113 290.29 166.147 296.597C138.09 303.408 114.393 307.795 89.9178 307.067C87.5677 306.997 85.7371 306.942 84.4207 307.365C84.0844 307.474 83.7522 307.621 83.4191 307.814C82.2215 308.505 81.0518 309.719 80.0405 311.339C71.5759 324.941 86.4393 338.27 100.395 347.06C134.529 368.55 179.079 376.585 222.63 369.118C262.246 362.34 301.635 343.187 336.568 313.787C383.07 274.627 410.702 224.136 412.383 175.259C412.852 161.505 411.006 141.355 399.526 123.484C393.54 114.197 385.559 106.386 377.099 98.1103L377.099 98.1103Z" fill="url(#paint0_linear_623_6019)" fill-opacity="0.15"/>
<path d="M173.008 283.424C195.449 277.707 218.705 270.636 240.325 259.553C270.364 244.179 293.813 220.989 308.23 192.517C318.996 171.249 325.735 147.161 328.379 120.813C322.018 133.25 314.33 144.973 305.129 155.474C285.694 177.644 260.277 191.887 231.612 198.377C208.471 203.61 184.546 204.24 160.821 203.94C139.098 203.658 117.146 202.579 96.2782 196.561C94.2274 195.969 92.1369 195.323 90.0127 195.451C87.1656 195.623 84.5543 197.176 82.4923 199.151C69.1112 211.936 81.7493 229.592 91.6545 240.06C113.133 262.756 142.263 277.368 173.009 283.424L173.008 283.424Z" fill="url(#paint1_linear_623_6019)" fill-opacity="0.15"/>
</g>
<defs>
<linearGradient id="paint0_linear_623_6019" x1="164.793" y1="95.891" x2="304.254" y2="337.444" gradientUnits="userSpaceOnUse">
<stop stop-color="#3F3F3F"/>
<stop offset="1"/>
</linearGradient>
<linearGradient id="paint1_linear_623_6019" x1="185.029" y1="139.411" x2="250.985" y2="253.65" gradientUnits="userSpaceOnUse">
<stop stop-color="#3F3F3F"/>
<stop offset="1"/>
</linearGradient>
<clipPath id="clip0_623_6019">
<rect width="379.614" height="279.677" fill="white" transform="translate(0.176758 190.648) rotate(-30)"/>
</clipPath>
</defs>
</svg>

<svg width="469" height="433" viewBox="0 0 469 433" fill="none" xmlns="http://www.w3.org/2000/svg"><g clip-path="url(#clip0_623_6019)" fill-opacity=".15"><path d="M377.099 98.11c-10.524-10.295-21.408-20.943-28.105-34.757-3.269-6.743-5.328-13.843-7.327-20.709-1.106-3.81-2.214-7.634-3.53-11.373-3.965-11.234-8.946-18.532-14.388-21.09-2.953-1.395-6.181-1.415-9.866-.068-4.794 1.758-6.137 4.287-6.731 6.048-3.933 11.497 10.724 34.858 20.42 50.314 5.078 8.098 9.091 14.488 10.519 18.897 2.819 8.68 2.73 17.81 2.214 26.378-1.924 31.706-9.373 60.567-22.14 85.79-15.485 30.59-40.645 55.464-72.758 71.92-25.718 13.171-53.294 20.83-79.26 27.137-28.057 6.811-51.754 11.198-76.23 10.47-2.35-.07-4.18-.125-5.496.298a5.164 5.164 0 00-1.002.449c-1.197.691-2.367 1.905-3.379 3.525-8.464 13.602 6.4 26.931 20.355 35.721 34.134 21.49 78.684 29.525 122.235 22.058 39.616-6.778 79.005-25.931 113.938-55.331 46.502-39.16 74.134-89.651 75.815-138.528.469-13.754-1.377-33.904-12.857-51.775-5.986-9.287-13.967-17.098-22.427-25.374z" fill="url(#paint0_linear_623_6019)"/><path d="M173.008 283.424c22.441-5.717 45.697-12.788 67.317-23.871 30.039-15.374 53.488-38.564 67.905-67.036 10.766-21.268 17.505-45.356 20.149-71.704-6.361 12.437-14.049 24.16-23.25 34.661-19.435 22.17-44.852 36.413-73.517 42.903-23.141 5.233-47.066 5.863-70.791 5.563-21.723-.282-43.675-1.361-64.543-7.379-2.05-.592-4.141-1.238-6.265-1.11-2.847.172-5.459 1.725-7.52 3.7-13.382 12.785-.744 30.441 9.162 40.909 21.478 22.696 50.608 37.308 81.354 43.364h-.001z" fill="url(#paint1_linear_623_6019)"/></g><defs><linearGradient id="paint0_linear_623_6019" x1="164.793" y1="95.891" x2="304.254" y2="337.444" gradientUnits="userSpaceOnUse"><stop stop-color="#3F3F3F"/><stop offset="1"/></linearGradient><linearGradient id="paint1_linear_623_6019" x1="185.029" y1="139.411" x2="250.985" y2="253.65" gradientUnits="userSpaceOnUse"><stop stop-color="#3F3F3F"/><stop offset="1"/></linearGradient><clipPath id="clip0_623_6019"><path fill="#fff" transform="rotate(-30 355.842 94.994)" d="M0 0h379.614v279.677H0z"/></clipPath></defs></svg>
